assets/components_previews/overlay/light/alert_dialog.svg

<svg xmlns="http://www.w3.org/2000/svg" width="320" height="232" fill="none" viewBox="0 0 320 232"><g filter="url(#a)"><g clip-path="url(#b)"><rect width="216" height="104" x="52" y="64" fill="#fff" rx="12"/><rect width="96" height="10" x="76" y="80" fill="#EBE4FF" rx="5"/><rect width="168" height="10" x="76" y="100" fill="#EBE4FF" rx="5"/><g filter="url(#c)"><rect width="95" height="32" x="62" y="126" fill="#fff" rx="8"/><path fill="#AA99EC" d="M92.163 147.14c-2.926 0-5.054-2.184-5.054-5.222 0-3.024 2.1-5.138 5.054-5.138 2.492 0 4.368 1.554 4.662 3.892h-2.1c-.238-1.442-1.26-2.184-2.548-2.184-1.709 0-2.885 1.26-2.885 3.416 0 2.198 1.204 3.528 2.912 3.528 1.219 0 2.24-.728 2.52-2.17h2.129c-.364 2.352-2.227 3.878-4.69 3.878m7.392 0c-1.414 0-2.324-.77-2.324-1.974 0-1.33 1.05-2.142 2.842-2.394l1.764-.252v-.364c0-.574-.392-.924-1.134-.924-.714 0-1.134.252-1.26.714H97.44c.182-1.288 1.344-2.226 3.332-2.226 2.044 0 3.164.938 3.164 2.66v3.15c0 .476.056.924.21 1.47h-2.1c-.098-.336-.14-.7-.154-1.162-.448.854-1.26 1.302-2.338 1.302m-.224-2.254c0 .462.364.714.924.714.882 0 1.582-.56 1.582-1.19v-.658l-1.414.21c-.756.112-1.092.406-1.092.924m6.045 2.114v-7.14h2.058v1.302c.49-.882 1.358-1.442 2.562-1.442 1.582 0 2.45.952 2.45 2.45V147h-2.1v-4.424c0-.784-.406-1.176-1.176-1.176-.994 0-1.694.714-1.694 1.764V147zm11.727.14c-2.24 0-3.794-1.554-3.794-3.71s1.554-3.71 3.794-3.71c1.876 0 3.262 1.092 3.542 2.702h-2.03c-.21-.686-.784-1.05-1.484-1.05-1.022 0-1.638.798-1.638 2.058s.616 2.058 1.638 2.058c.7 0 1.274-.364 1.484-1.05h2.03c-.28 1.61-1.666 2.702-3.542 2.702m7.771 0c-2.38 0-3.92-1.512-3.92-3.71 0-2.212 1.554-3.71 3.85-3.71 2.212 0 3.626 1.428 3.626 3.57 0 .308-.028.546-.056.77h-5.292c.14 1.064.742 1.568 1.778 1.568.672 0 1.162-.21 1.414-.714h1.974c-.476 1.386-1.596 2.226-3.374 2.226m-.098-5.908c-.882 0-1.47.476-1.666 1.442h3.192c-.084-.98-.644-1.442-1.526-1.442m4.602 5.768v-10.08h2.1V147z"/></g><g filter="url(#d)"><rect width="95" height="32" x="163" y="126" fill="#AA99EC" rx="8"/><path fill="#fff" d="M186.154 147.14c-2.926 0-5.054-2.184-5.054-5.222 0-3.024 2.1-5.138 5.054-5.138 2.492 0 4.368 1.554 4.662 3.892h-2.1c-.238-1.442-1.26-2.184-2.548-2.184-1.708 0-2.884 1.26-2.884 3.416 0 2.198 1.204 3.528 2.912 3.528 1.218 0 2.24-.728 2.52-2.17h2.128c-.364 2.352-2.226 3.878-4.69 3.878m9.052 0c-2.352 0-3.948-1.512-3.948-3.738 0-2.212 1.582-3.682 3.948-3.682 2.38 0 3.948 1.47 3.948 3.682 0 2.226-1.596 3.738-3.948 3.738m0-1.652c.98 0 1.764-.784 1.764-2.1 0-1.288-.77-2.016-1.764-2.016s-1.764.742-1.764 2.016c0 1.316.784 2.1 1.764 2.1m4.886 1.512v-7.14h2.058v1.302c.49-.882 1.358-1.442 2.562-1.442 1.582 0 2.45.952 2.45 2.45V147h-2.1v-4.424c0-.784-.406-1.176-1.176-1.176-.994 0-1.694.714-1.694 1.764V147zm11.566.154c-1.834 0-2.702-.868-2.702-2.688v-3.01h-1.33v-1.596h1.33v-1.596l2.1-.784v2.38h1.848v1.596h-1.848v3.08c0 .644.35.952 1.092.952.28 0 .518-.056.756-.14v1.596c-.252.14-.7.21-1.246.21m2.191-8.246v-2.268h2.24v2.268zm.07 8.092v-7.14h2.1V147zm3.599 0v-7.14h2.058v1.302c.49-.882 1.358-1.442 2.562-1.442 1.582 0 2.45.952 2.45 2.45V147h-2.1v-4.424c0-.784-.406-1.176-1.176-1.176-.994 0-1.694.714-1.694 1.764V147zm10.57.14c-1.526 0-2.394-1.092-2.394-2.45v-4.83h2.1v4.424c0 .784.406 1.176 1.12 1.176.938 0 1.638-.714 1.638-1.764v-3.836h2.1V147h-2.058v-1.302c-.49.882-1.344 1.442-2.506 1.442m9.393 0c-2.38 0-3.92-1.512-3.92-3.71 0-2.212 1.554-3.71 3.85-3.71 2.212 0 3.626 1.428 3.626 3.57 0 .308-.028.546-.056.77h-5.292c.14 1.064.742 1.568 1.778 1.568.672 0 1.162-.21 1.414-.714h1.974c-.476 1.386-1.596 2.226-3.374 2.226m-.098-5.908c-.882 0-1.47.476-1.666 1.442h3.192c-.084-.98-.644-1.442-1.526-1.442"/></g></g></g><defs><filter id="a" width="256" height="144" x="32" y="56" color-interpolation-filters="sRGB" filterUnits="userSpaceOnUse"><feFlood flood-opacity="0" result="BackgroundImageFix"/><feColorMatrix in="SourceAlpha" result="hardAlpha" values="0 0 0 0 0 0 0 0 0 0 0 0 0 0 0 0 0 0 127 0"/><feOffset dy="12"/><feGaussianBlur stdDeviation="10"/><feComposite in2="hardAlpha" operator="out"/><feColorMatrix values="0 0 0 0 0 0 0 0 0 0 0 0 0 0 0 0 0 0 0.03 0"/><feBlend in2="BackgroundImageFix" result="effect1_dropShadow_10186_24722"/><feColorMatrix in="SourceAlpha" result="hardAlpha" values="0 0 0 0 0 0 0 0 0 0 0 0 0 0 0 0 0 0 127 0"/><feOffset dy="2"/><feGaussianBlur stdDeviation="3"/><feComposite in2="hardAlpha" operator="out"/><feColorMatrix values="0 0 0 0 0 0 0 0 0 0 0 0 0 0 0 0 0 0 0.05 0"/><feBlend in2="effect1_dropShadow_10186_24722" result="effect2_dropShadow_10186_24722"/><feBlend in="SourceGraphic" in2="effect2_dropShadow_10186_24722" result="shape"/></filter><filter id="c" width="135" height="72" x="42" y="118" color-interpolation-filters="sRGB" filterUnits="userSpaceOnUse"><feFlood flood-opacity="0" result="BackgroundImageFix"/><feColorMatrix in="SourceAlpha" result="hardAlpha" values="0 0 0 0 0 0 0 0 0 0 0 0 0 0 0 0 0 0 127 0"/><feOffset dy="12"/><feGaussianBlur stdDeviation="10"/><feComposite in2="hardAlpha" operator="out"/><feColorMatrix values="0 0 0 0 0 0 0 0 0 0 0 0 0 0 0 0 0 0 0.03 0"/><feBlend in2="BackgroundImageFix" result="effect1_dropShadow_10186_24722"/><feColorMatrix in="SourceAlpha" result="hardAlpha" values="0 0 0 0 0 0 0 0 0 0 0 0 0 0 0 0 0 0 127 0"/><feOffset dy="2"/><feGaussianBlur stdDeviation="3"/><feComposite in2="hardAlpha" operator="out"/><feColorMatrix values="0 0 0 0 0 0 0 0 0 0 0 0 0 0 0 0 0 0 0.05 0"/><feBlend in2="effect1_dropShadow_10186_24722" result="effect2_dropShadow_10186_24722"/><feBlend in="SourceGraphic" in2="effect2_dropShadow_10186_24722" result="shape"/></filter><filter id="d" width="135" height="72" x="143" y="118" color-interpolation-filters="sRGB" filterUnits="userSpaceOnUse"><feFlood flood-opacity="0" result="BackgroundImageFix"/><feColorMatrix in="SourceAlpha" result="hardAlpha" values="0 0 0 0 0 0 0 0 0 0 0 0 0 0 0 0 0 0 127 0"/><feOffset dy="12"/><feGaussianBlur stdDeviation="10"/><feComposite in2="hardAlpha" operator="out"/><feColorMatrix values="0 0 0 0 0 0 0 0 0 0 0 0 0 0 0 0 0 0 0.03 0"/><feBlend in2="BackgroundImageFix" result="effect1_dropShadow_10186_24722"/><feColorMatrix in="SourceAlpha" result="hardAlpha" values="0 0 0 0 0 0 0 0 0 0 0 0 0 0 0 0 0 0 127 0"/><feOffset dy="2"/><feGaussianBlur stdDeviation="3"/><feComposite in2="hardAlpha" operator="out"/><feColorMatrix values="0 0 0 0 0 0 0 0 0 0 0 0 0 0 0 0 0 0 0.05 0"/><feBlend in2="effect1_dropShadow_10186_24722" result="effect2_dropShadow_10186_24722"/><feBlend in="SourceGraphic" in2="effect2_dropShadow_10186_24722" result="shape"/></filter><clipPath id="b"><rect width="216" height="104" x="52" y="64" fill="#fff" rx="12"/></clipPath></defs></svg>

<svg width="320" height="232" viewBox="0 0 320 232" fill="none" xmlns="http://www.w3.org/2000/svg">
<g filter="url(#filter0_dd_10186_24722)">
<g clip-path="url(#clip0_10186_24722)">
<rect x="52" y="64" width="216" height="104" rx="12" fill="white"/>
<rect x="76" y="80" width="96" height="10" rx="5" fill="#EBE4FF"/>
<rect x="76" y="100" width="168" height="10" rx="5" fill="#EBE4FF"/>
<g filter="url(#filter1_dd_10186_24722)">
<rect x="62" y="126" width="95" height="32" rx="8" fill="white"/>
<path d="M92.1625 147.14C89.2365 147.14 87.1085 144.956 87.1085 141.918C87.1085 138.894 89.2085 136.78 92.1625 136.78C94.6545 136.78 96.5305 138.334 96.8245 140.672H94.7245C94.4865 139.23 93.4645 138.488 92.1765 138.488C90.4685 138.488 89.2925 139.748 89.2925 141.904C89.2925 144.102 90.4965 145.432 92.2045 145.432C93.4225 145.432 94.4445 144.704 94.7245 143.262H96.8525C96.4885 145.614 94.6265 147.14 92.1625 147.14ZM99.5547 147.14C98.1407 147.14 97.2307 146.37 97.2307 145.166C97.2307 143.836 98.2807 143.024 100.073 142.772L101.837 142.52V142.156C101.837 141.582 101.445 141.232 100.703 141.232C99.9887 141.232 99.5687 141.484 99.4427 141.946H97.4407C97.6227 140.658 98.7847 139.72 100.773 139.72C102.817 139.72 103.937 140.658 103.937 142.38V145.53C103.937 146.006 103.993 146.454 104.147 147H102.047C101.949 146.664 101.907 146.3 101.893 145.838C101.445 146.692 100.633 147.14 99.5547 147.14ZM99.3307 144.886C99.3307 145.348 99.6947 145.6 100.255 145.6C101.137 145.6 101.837 145.04 101.837 144.41V143.752L100.423 143.962C99.6667 144.074 99.3307 144.368 99.3307 144.886ZM105.376 147V139.86H107.434V141.162C107.924 140.28 108.792 139.72 109.996 139.72C111.578 139.72 112.446 140.672 112.446 142.17V147H110.346V142.576C110.346 141.792 109.94 141.4 109.17 141.4C108.176 141.4 107.476 142.114 107.476 143.164V147H105.376ZM117.103 147.14C114.863 147.14 113.309 145.586 113.309 143.43C113.309 141.274 114.863 139.72 117.103 139.72C118.979 139.72 120.365 140.812 120.645 142.422H118.615C118.405 141.736 117.831 141.372 117.131 141.372C116.109 141.372 115.493 142.17 115.493 143.43C115.493 144.69 116.109 145.488 117.131 145.488C117.831 145.488 118.405 145.124 118.615 144.438H120.645C120.365 146.048 118.979 147.14 117.103 147.14ZM124.874 147.14C122.494 147.14 120.954 145.628 120.954 143.43C120.954 141.218 122.508 139.72 124.804 139.72C127.016 139.72 128.43 141.148 128.43 143.29C128.43 143.598 128.402 143.836 128.374 144.06H123.082C123.222 145.124 123.824 145.628 124.86 145.628C125.532 145.628 126.022 145.418 126.274 144.914H128.248C127.772 146.3 126.652 147.14 124.874 147.14ZM124.776 141.232C123.894 141.232 123.306 141.708 123.11 142.674H126.302C126.218 141.694 125.658 141.232 124.776 141.232ZM129.378 147V136.92H131.478V147H129.378Z" fill="#AA99EC"/>
</g>
<g filter="url(#filter2_dd_10186_24722)">
<rect x="163" y="126" width="95" height="32" rx="8" fill="#AA99EC"/>
<path d="M186.154 147.14C183.228 147.14 181.1 144.956 181.1 141.918C181.1 138.894 183.2 136.78 186.154 136.78C188.646 136.78 190.522 138.334 190.816 140.672H188.716C188.478 139.23 187.456 138.488 186.168 138.488C184.46 138.488 183.284 139.748 183.284 141.904C183.284 144.102 184.488 145.432 186.196 145.432C187.414 145.432 188.436 144.704 188.716 143.262H190.844C190.48 145.614 188.618 147.14 186.154 147.14ZM195.206 147.14C192.854 147.14 191.258 145.628 191.258 143.402C191.258 141.19 192.84 139.72 195.206 139.72C197.586 139.72 199.154 141.19 199.154 143.402C199.154 145.628 197.558 147.14 195.206 147.14ZM195.206 145.488C196.186 145.488 196.97 144.704 196.97 143.388C196.97 142.1 196.2 141.372 195.206 141.372C194.212 141.372 193.442 142.114 193.442 143.388C193.442 144.704 194.226 145.488 195.206 145.488ZM200.092 147V139.86H202.15V141.162C202.64 140.28 203.508 139.72 204.712 139.72C206.294 139.72 207.162 140.672 207.162 142.17V147H205.062V142.576C205.062 141.792 204.656 141.4 203.886 141.4C202.892 141.4 202.192 142.114 202.192 143.164V147H200.092ZM211.658 147.154C209.824 147.154 208.956 146.286 208.956 144.466V141.456H207.626V139.86H208.956V138.264L211.056 137.48V139.86H212.904V141.456H211.056V144.536C211.056 145.18 211.406 145.488 212.148 145.488C212.428 145.488 212.666 145.432 212.904 145.348V146.944C212.652 147.084 212.204 147.154 211.658 147.154ZM213.849 138.908V136.64H216.089V138.908H213.849ZM213.919 147V139.86H216.019V147H213.919ZM217.518 147V139.86H219.576V141.162C220.066 140.28 220.934 139.72 222.138 139.72C223.72 139.72 224.588 140.672 224.588 142.17V147H222.488V142.576C222.488 141.792 222.082 141.4 221.312 141.4C220.318 141.4 219.618 142.114 219.618 143.164V147H217.518ZM228.088 147.14C226.562 147.14 225.694 146.048 225.694 144.69V139.86H227.794V144.284C227.794 145.068 228.2 145.46 228.914 145.46C229.852 145.46 230.552 144.746 230.552 143.696V139.86H232.652V147H230.594V145.698C230.104 146.58 229.25 147.14 228.088 147.14ZM237.481 147.14C235.101 147.14 233.561 145.628 233.561 143.43C233.561 141.218 235.115 139.72 237.411 139.72C239.623 139.72 241.037 141.148 241.037 143.29C241.037 143.598 241.009 143.836 240.981 144.06H235.689C235.829 145.124 236.431 145.628 237.467 145.628C238.139 145.628 238.629 145.418 238.881 144.914H240.855C240.379 146.3 239.259 147.14 237.481 147.14ZM237.383 141.232C236.501 141.232 235.913 141.708 235.717 142.674H238.909C238.825 141.694 238.265 141.232 237.383 141.232Z" fill="white"/>
</g>
</g>
</g>
<defs>
<filter id="filter0_dd_10186_24722" x="32" y="56" width="256" height="144" filterUnits="userSpaceOnUse" color-interpolation-filters="sRGB">
<feFlood flood-opacity="0" result="BackgroundImageFix"/>
<feColorMatrix in="SourceAlpha" type="matrix" values="0 0 0 0 0 0 0 0 0 0 0 0 0 0 0 0 0 0 127 0" result="hardAlpha"/>
<feOffset dy="12"/>
<feGaussianBlur stdDeviation="10"/>
<feComposite in2="hardAlpha" operator="out"/>
<feColorMatrix type="matrix" values="0 0 0 0 0 0 0 0 0 0 0 0 0 0 0 0 0 0 0.03 0"/>
<feBlend mode="normal" in2="BackgroundImageFix" result="effect1_dropShadow_10186_24722"/>
<feColorMatrix in="SourceAlpha" type="matrix" values="0 0 0 0 0 0 0 0 0 0 0 0 0 0 0 0 0 0 127 0" result="hardAlpha"/>
<feOffset dy="2"/>
<feGaussianBlur stdDeviation="3"/>
<feComposite in2="hardAlpha" operator="out"/>
<feColorMatrix type="matrix" values="0 0 0 0 0 0 0 0 0 0 0 0 0 0 0 0 0 0 0.05 0"/>
<feBlend mode="normal" in2="effect1_dropShadow_10186_24722" result="effect2_dropShadow_10186_24722"/>
<feBlend mode="normal" in="SourceGraphic" in2="effect2_dropShadow_10186_24722" result="shape"/>
</filter>
<filter id="filter1_dd_10186_24722" x="42" y="118" width="135" height="72" filterUnits="userSpaceOnUse" color-interpolation-filters="sRGB">
<feFlood flood-opacity="0" result="BackgroundImageFix"/>
<feColorMatrix in="SourceAlpha" type="matrix" values="0 0 0 0 0 0 0 0 0 0 0 0 0 0 0 0 0 0 127 0" result="hardAlpha"/>
<feOffset dy="12"/>
<feGaussianBlur stdDeviation="10"/>
<feComposite in2="hardAlpha" operator="out"/>
<feColorMatrix type="matrix" values="0 0 0 0 0 0 0 0 0 0 0 0 0 0 0 0 0 0 0.03 0"/>
<feBlend mode="normal" in2="BackgroundImageFix" result="effect1_dropShadow_10186_24722"/>
<feColorMatrix in="SourceAlpha" type="matrix" values="0 0 0 0 0 0 0 0 0 0 0 0 0 0 0 0 0 0 127 0" result="hardAlpha"/>
<feOffset dy="2"/>
<feGaussianBlur stdDeviation="3"/>
<feComposite in2="hardAlpha" operator="out"/>
<feColorMatrix type="matrix" values="0 0 0 0 0 0 0 0 0 0 0 0 0 0 0 0 0 0 0.05 0"/>
<feBlend mode="normal" in2="effect1_dropShadow_10186_24722" result="effect2_dropShadow_10186_24722"/>
<feBlend mode="normal" in="SourceGraphic" in2="effect2_dropShadow_10186_24722" result="shape"/>
</filter>
<filter id="filter2_dd_10186_24722" x="143" y="118" width="135" height="72" filterUnits="userSpaceOnUse" color-interpolation-filters="sRGB">
<feFlood flood-opacity="0" result="BackgroundImageFix"/>
<feColorMatrix in="SourceAlpha" type="matrix" values="0 0 0 0 0 0 0 0 0 0 0 0 0 0 0 0 0 0 127 0" result="hardAlpha"/>
<feOffset dy="12"/>
<feGaussianBlur stdDeviation="10"/>
<feComposite in2="hardAlpha" operator="out"/>
<feColorMatrix type="matrix" values="0 0 0 0 0 0 0 0 0 0 0 0 0 0 0 0 0 0 0.03 0"/>
<feBlend mode="normal" in2="BackgroundImageFix" result="effect1_dropShadow_10186_24722"/>
<feColorMatrix in="SourceAlpha" type="matrix" values="0 0 0 0 0 0 0 0 0 0 0 0 0 0 0 0 0 0 127 0" result="hardAlpha"/>
<feOffset dy="2"/>
<feGaussianBlur stdDeviation="3"/>
<feComposite in2="hardAlpha" operator="out"/>
<feColorMatrix type="matrix" values="0 0 0 0 0 0 0 0 0 0 0 0 0 0 0 0 0 0 0.05 0"/>
<feBlend mode="normal" in2="effect1_dropShadow_10186_24722" result="effect2_dropShadow_10186_24722"/>
<feBlend mode="normal" in="SourceGraphic" in2="effect2_dropShadow_10186_24722" result="shape"/>
</filter>
<clipPath id="clip0_10186_24722">
<rect x="52" y="64" width="216" height="104" rx="12" fill="white"/>
</clipPath>
</defs>
</svg>
